X:1075
T:Shove the Pig's Foot a Little Further Into The Fire
R:reel
O:American
Z:id:hn-reel-1075
M:C|
L:1/8
K:G
BcBA G2EF | GAGE D3D | EFG2 B3c | B2A2- A3B- |
BcBA G2EF | GAGE D3D | EFG2 B3G |1 A2G2- G3B- :|2 A2G2- G2GA ||
|: BddB d2Bd | edBc dBG2 | Bcd2 g3g | e2d2- d2GA |
BddB d2Bd | edBc d2d2 | B3c BAGB |1 A2G2- G2GA :|2 A2G2- G3B ||

